svgs/sharp-regular/mattress-pillow.svg

<svg xmlns="http://www.w3.org/2000/svg" viewBox="0 0 640 512"><!--! Font Awesome Pro 6.6.0 by @fontawesome - https://fontawesome.com License - https://fontawesome.com/license (Commercial License) Copyright 2024 Fonticons, Inc. --><path d="M240 112l0 288L48 400l0-288 192 0zm48 0l304 0 0 288-304 0 0-288zM48 64L0 64l0 48L0 400l0 48 48 0 544 0 48 0 0-48 0-288 0-48-48 0L48 64zm32 80l0 224 128 0 0-224L80 144z"/></svg>

<svg xmlns="http://www.w3.org/2000/svg" viewBox="0 0 640 512"><!--! Font Awesome Pro 6.4.0 by @fontawesome - https://fontawesome.com License - https://fontawesome.com/license (Commercial License) Copyright 2023 Fonticons, Inc. --><path d="M240 112V400H48V112H240zm48 0H592V400H288V112zM48 64H0v48V400v48H48 592h48V400 112 64H592 48zm32 80V368H208V144H80z"/></svg>
